X: 27
T: No_129_I_Will_Start_Before_Noon.krn
N: Derived from No_129_I_Will_Start_Before_Noon.krn
%%abc-version 2.0
%%abcx-abcm2ps-target-version 5.9.1 (29 Sep 2008)
%%abc-creator hum2abc beta
%%abcx-conversion-date 2019/03/15 08:29:13
%%humdrum-veritas 2561725101
%%humdrum-veritas-data 2988021871
%%linebreak <none>
%%barnumbers 0
L: 1/4
M: 3/4
%%staves {1 2}
V: 1 clef=treble
V: 2 clef=bass
K: Db
[V:1] [K:clef=treble][M:3/4]{/A}AAF ||  
[V:2] [K:clef=bass][M:3/4]z3 ||  
[V:1] [M:4/4]AA3 ||  
[V:2] [M:4/4](3!accent!G,,/ z/ G,,/ (3!accent!G,,/ z/ G,,/ (3!accent!G,,/ z/ G,,/ (3!accent!G,,/ z/ G,,/ ||  
[V:1] [M:3/4]{/A}FFF/D/ | 
[V:2] [M:3/4]z3 | 
[V:1] DDB, | 
[V:2] z3 | 
[V:1] DD3/D/ ||  
[V:2] z3 ||  
[V:1] [M:5/4]D3z3/F/ | 
[V:2] [M:5/4]z4z | 
[V:1] F3/F/FFF/D/ ||  
[V:2] z4z ||  
[V:1] [M:3/4]DDB, | 
[V:2] [M:3/4]z3 | 
[V:1] DD2- | 
[V:2] z3 | 
[V:1] Dz/ D/B, | 
[V:2] z3 | 
[V:1] [M:2/4]z2 | 
[V:2] [M:2/4]A,A,/F,/ | 
[V:1] [M:2/4]z2 | 
[V:2] [M:2/4]A,A,/F,/ | 
[V:1] [M:4/4]z4 ||  
[V:2] [M:4/4]A,A,3 ||  
[V:1] [M:3/4]z3 | 
[V:2] [M:3/4]{/A,}F,F,F,/D,/ | 
[V:1] z3 | 
[V:2] D,2D, | 
[V:1] z3 |]  
[V:2] D,3 |]  



